X:6
T:Es ging beim hellen Mondenschein...
R:Volksweise
O:France
A:Elsssische Volksweise
B:Frau Nachtigall (Straburg - 1928)
Z:<anamnese@laposte.net> -- http://anamnese.fr.st
N:p.9
M:6/8
L:1/4
Q:1/4=150
K:E
B,/ | EF/ GA/ | cB/ BG/ | BA/ FG/ | E3/2-E z :|
G/  | FF/ F/G/ ^A/ | B d/dd/ | e e/ f e/ | d c/ B A/ | 
G G/G A/ | c B/ B G/ | B A/ F G/ | E3/2-E/ z/ |]
